X:1
T:Title
%%score ( 1 2 ) { 3 | 4 }
L:1/8
Q:1/4=170
M:4/4
K:Bb
V:1 treble nm="Grand Piano, Unnamed-000"
V:2 treble 
V:3 bass nm="Choir Pad, Ward, Lowell Mason, 1830"
V:4 bass 
V:1
 [DF]4 [DF]2 [FB]2 | [EA]4 [DB]4 | F4 [EG]4 | [DF]6 [DF]2 | [CF]4 [CF]4 | z2 B4 [Fc]2 | %6
w: By~Scottish~melody,~arr.~by~Lowell~Mason,~1830 * *||||||
 [Fd]4 [Fc]2 [=EB]2 | [Fc]8 | [DF]4 [DF]2 [FB]2 | [EA]4 [DB]4 | F4 [EG]4 | [DF]6 [DF]2 | %12
w: ||||||
 [CF]4 [CF]4 | z2 B4 [Gc]2 | [Fd]4 [Ec]4 | [DB]8- | [DB]4 z4 |] %17
w: |||||
V:2
 x8 | x8 | x8 | x8 | x8 | F6 z2 | x8 | x8 | x8 | x8 | x8 | x8 | x8 | F6 z2 | x8 | x8 | x8 |] %17
V:3
 B,4 B,2 D2 | C4 B,4 | B,4 B,4 | B,6 B,2 | A,4 A,4 | B,6 A,2 | B,4 C4 | A,8 | B,4 B,2 D2 | C4 B,4 | %10
 B,4 B,4 | B,6 B,2 | A,4 A,4 | B,6 B,2 | B,4 A,4 | B,8- | B,4 z4 |] %17
V:4
 B,,4 B,,2 B,,2 | F,4 G,4 | D,4 E,4 | B,,6 B,,2 | F,4 F,2 E,2 | D,6 F,2 | z4 A,2 G,2 | F,8 | %8
 z4 B,,2 B,,2 | F,4 G,4 | D,4 E,4 | B,,6 B,,2 | F,4 F,2 E,2 | D,6 E,2 | F,4 F,4 | B,,8- | %16
 B,,4 z4 |] %17

